packages/foundations/assets/icons/functional/images/communication/paper_plane_20.svg

<svg width="20" height="20" viewBox="0 0 20 20" fill="none" xmlns="http://www.w3.org/2000/svg">
<g clip-path="url(#clip0_185_466)">
<path fill-rule="evenodd" clip-rule="evenodd" d="M17.7108 2.28918C17.984 2.58196 18.0816 2.99175 17.9255 3.36257L12.3047 17.3755C12.1486 17.7463 11.7973 18 11.3875 18C10.9191 17.9804 10.5677 17.7072 10.4507 17.3169L8.51857 11.4814L2.68308 9.54929C2.29278 9.43228 2.01959 9.06146 2 8.65157C2 8.22219 2.23422 7.85137 2.62453 7.69529L16.6374 2.07454C17.0083 1.91836 17.418 2.01598 17.7108 2.28918ZM15.2322 4.7678L5.88376 8.51497L9.61145 9.74454C9.90422 9.86155 10.1384 10.0763 10.236 10.3886L11.4655 14.1162L15.2322 4.7678Z" fill="#1A1C1F"/>
</g>
<defs>
<clipPath id="clip0_185_466">
<rect width="20" height="20" fill="white"/>
</clipPath>
</defs>
</svg>

<svg xmlns="http://www.w3.org/2000/svg" width="20" height="20" fill="none"><g clip-path="url(#a)"><path fill="#1A1C1F" fill-rule="evenodd" d="M17.71 2.29c.274.292.372.702.215 1.073l-5.62 14.013a1 1 0 0 1-.918.624c-.468-.02-.82-.293-.936-.683L8.519 11.48 2.683 9.55A.99.99 0 0 1 2 8.652c0-.43.234-.8.625-.957l14.012-5.62c.371-.157.781-.059 1.074.214m-2.478 2.478L5.884 8.515l3.727 1.23c.293.117.527.331.625.644l1.23 3.727z" clip-rule="evenodd"/></g><defs><clipPath id="a"><path fill="#fff" d="M0 0h20v20H0z"/></clipPath></defs></svg>
